svgs/sharp-solid/person-harassing.svg

<svg xmlns="http://www.w3.org/2000/svg" viewBox="0 0 576 512"><!--! Font Awesome Pro 6.6.0 by @fontawesome - https://fontawesome.com License - https://fontawesome.com/license (Commercial License) Copyright 2024 Fonticons, Inc. --><path d="M192 96a48 48 0 1 0 0-96 48 48 0 1 0 0 96zM59.4 304.5L88 256.9 88 480l0 32 64 0 0-32 0-128 16 0 0 128 0 32 64 0 0-32 0-244.4 60.1 72.8 49.3-40.8-105.7-128L226.2 128l-15.1 0-102.2 0-18.1 0-9.3 15.5L4.6 271.5l54.9 33zM480 240a48 48 0 1 0 -96 0 48 48 0 1 0 96 0zm18.7 48l-9.4 9.4-16 16-9.4 9.4 0 13.3 0 66.7-41.4-41.4L372.9 367l-48 76.8-17 27.1 54.3 33.9 17-27.1 26.7-42.7 57.6 57.6c12.4 12.4 29.1 19.3 46.6 19.3c36.4 0 65.9-29.5 65.9-65.9L576 320l0-32-32 0-32 0-13.3 0zM288 32l0 32 16 0 56 0 16 0 0-32-16 0-56 0-16 0zm-.8 65.7l-14.3-7.2-14.3 28.6 14.3 7.2 48 24 14.3 7.2 14.3-28.6-14.3-7.2-48-24z"/></svg>

<svg xmlns="http://www.w3.org/2000/svg" viewBox="0 0 576 512"><!--! Font Awesome Pro 6.4.2 by @fontawesome - https://fontawesome.com License - https://fontawesome.com/license (Commercial License) Copyright 2023 Fonticons, Inc. --><path d="M192 96a48 48 0 1 0 0-96 48 48 0 1 0 0 96zM59.4 304.5L88 256.9V480v32h64V480 352h16V480v32h64V480 235.6l60.1 72.8 49.3-40.8-105.7-128L226.1 128H211.1 108.9 90.8l-9.3 15.5L4.6 271.5l54.9 33zM480 240a48 48 0 1 0 -96 0 48 48 0 1 0 96 0zm18.7 48l-9.4 9.4-16 16-9.4 9.4V336v66.7l-41.4-41.4L372.9 367l-48 76.8-17 27.1 54.3 33.9 17-27.1 26.7-42.7 57.6 57.6c12.4 12.4 29.1 19.3 46.6 19.3c36.4 0 65.9-29.5 65.9-65.9V320 288H544 512 498.7zM288 32V64h16 56 16V32H360 304 288zm-.8 65.7l-14.3-7.2-14.3 28.6 14.3 7.2 48 24 14.3 7.2 14.3-28.6-14.3-7.2-48-24z"/></svg>
